X: 120
T: A Dhomhnuill, A Dhomhnuill (Donald, Donald)
T: Reel, G
L: 1/16
M: C|
K: G
|: E2| D2G2G2A2 BBB2 g2e2| d2B2A2B2 G2E2D2E2| D2G2G2A2 BBB2 g2e2| d2B2A2B2 GGG2 G2:| 
|: f2| g2f2e2d2 eee2 g4| a2e2e2g2 e2d2B2d2| [1 g2f2e2d2 eee2 g2e2| d2B2A2B2 GGG2 G2:|
[2 g2f2e2d2 e2f2g2e2| d2B2A2B2 GGG2 G2|] 
D: Kinnon and Betty Beaton, Saturday Night Lively, KB20M98
